!!!OTL: HOLDE NACHT DEIN DUNKLER SCHLEIER
!!!ARE: Europa, Mitteleuropa, Deutschland, Bergisches Land
!!!SCT: E1342
!!!YEM: Copyright 1995, estate of Helmut Schaffrath.
**kern
*ICvox
*Ivox
*M4/4
*k[f#]
*G:
{8d
8d
=1
4.g
8g
8g
8g
8a
8g
=2
8g
8f#
4f#
4r}
{8d
8d
=3
4.g
8g
8g
8b
8dd
8b
=4
4b
4a
4r}
{8d
8d
=5
4.cc
8cc
8cc
8cc
8dd
8cc
=6
8cc
8b
4b
4r}
{8g
8f#
=7
4.e
8cc
8dd
8cc
8b
8a
=8
4a
4g
4r}
==
!!!AGN: Staende -, Soldaten -, Kriegs - Lied
!!!ONB: ESAC (Essen Associative Code) Database: ERK3
!!!AMT: simple quadruple
!!!AIN: vox
!!!EED: Helmut Schaffrath
!!!EEV: 1.0
*-
